images/nintendoicon.svg

<svg enable-background="new 0 0 256 256" viewBox="0 0 256 256" xmlns="http://www.w3.org/2000/svg"><g fill="#fcf3e8"><path d="m130.9 3.6-108.3 44.4 41.9 102.1 108.2-44.4zm-87.2 52.5 77.9-31.9 30.1 73.5-77.9 31.9z"/><path d="m179.4 121-111.5 44.6c-4.5 1.8-9.7-.4-11.5-4.9-1.8-4.5.4-9.7 4.9-11.5l111.6-44.6c4.5-1.8 9.7.4 11.5 4.9 1.8 4.5-.4 9.7-5 11.5z"/><path d="m176.9 119-108.6 43.5 36 89.9 108.6-43.4zm-53.6 73.9-8.4 3.4 3.4 8.4c1 2.5-.2 5.4-2.7 6.4s-5.4-.2-6.4-2.7l-3.4-8.4-8.4 3.4c-2.5 1-5.4-.2-6.4-2.7-1-2.5.2-5.4 2.7-6.4l8.4-3.4-3.4-8.4c-1-2.5.2-5.4 2.7-6.4 2.5-1 5.4.2 6.4 2.7l3.4 8.4 8.4-3.4c2.5-1 5.4.2 6.4 2.7s-.2 5.4-2.7 6.4zm3-38.3c-2.5 0-4.5-2-4.5-4.5s2-4.5 4.5-4.5 4.5 2 4.5 4.5c.1 2.5-2 4.5-4.5 4.5zm22.4 75.3c-2.5 0-4.5-2-4.5-4.5s2-4.5 4.5-4.5 4.5 2 4.5 4.5c.1 2.4-2 4.5-4.5 4.5zm15-6.3c-2.5 0-4.5-2-4.5-4.5s2-4.5 4.5-4.5 4.5 2 4.5 4.5c0 2.4-2 4.5-4.5 4.5zm2.1-41.1c-3.8 0-6.9-3.1-6.9-6.9s3.1-6.9 6.9-6.9 6.9 3.1 6.9 6.9-3 6.9-6.9 6.9zm6.9-20.8c-3.8 0-6.9-3.1-6.9-6.9s3.1-6.9 6.9-6.9 6.9 3.1 6.9 6.9-3.1 6.9-6.9 6.9z"/></g></svg>

<?xml version="1.0" encoding="utf-8"?>
<!-- Generator: Adobe Illustrator 25.0.0, SVG Export Plug-In . SVG Version: 6.00 Build 0)  -->
<svg version="1.1" id="Layer_2" xmlns="http://www.w3.org/2000/svg" xmlns:xlink="http://www.w3.org/1999/xlink" x="0px" y="0px"
	 viewBox="0 0 256 256" style="enable-background:new 0 0 256 256;" xml:space="preserve">
<style type="text/css">
	.st0{fill:#FCF3E8;}
</style>
<path class="st0" d="M130.9,3.6L22.6,48l41.9,102.1l108.2-44.4L130.9,3.6z M43.7,56.1l77.9-31.9l30.1,73.5l-77.9,31.9L43.7,56.1z"/>
<path class="st0" d="M179.4,121L67.9,165.6c-4.5,1.8-9.7-0.4-11.5-4.9l0,0c-1.8-4.5,0.4-9.7,4.9-11.5l111.6-44.6
	c4.5-1.8,9.7,0.4,11.5,4.9v0C186.2,114,184,119.2,179.4,121z"/>
<path class="st0" d="M176.9,119L68.3,162.5l36,89.9L212.9,209L176.9,119z M123.3,192.9l-8.4,3.4l3.4,8.4c1,2.5-0.2,5.4-2.7,6.4
	c-2.5,1-5.4-0.2-6.4-2.7l-3.4-8.4l-8.4,3.4c-2.5,1-5.4-0.2-6.4-2.7v0c-1-2.5,0.2-5.4,2.7-6.4l8.4-3.4l-3.4-8.4
	c-1-2.5,0.2-5.4,2.7-6.4v0c2.5-1,5.4,0.2,6.4,2.7l3.4,8.4l8.4-3.4c2.5-1,5.4,0.2,6.4,2.7C127,189,125.8,191.9,123.3,192.9z
	 M126.3,154.6c-2.5,0-4.5-2-4.5-4.5c0-2.5,2-4.5,4.5-4.5c2.5,0,4.5,2,4.5,4.5C130.9,152.6,128.8,154.6,126.3,154.6z M148.7,229.9
	c-2.5,0-4.5-2-4.5-4.5c0-2.5,2-4.5,4.5-4.5c2.5,0,4.5,2,4.5,4.5C153.3,227.8,151.2,229.9,148.7,229.9z M163.7,223.6
	c-2.5,0-4.5-2-4.5-4.5c0-2.5,2-4.5,4.5-4.5c2.5,0,4.5,2,4.5,4.5C168.2,221.5,166.2,223.6,163.7,223.6z M165.8,182.5
	c-3.8,0-6.9-3.1-6.9-6.9s3.1-6.9,6.9-6.9s6.9,3.1,6.9,6.9S169.7,182.5,165.8,182.5z M172.7,161.7c-3.8,0-6.9-3.1-6.9-6.9
	s3.1-6.9,6.9-6.9s6.9,3.1,6.9,6.9S176.5,161.7,172.7,161.7z"/>
</svg>
